src/assets/images/semi-circle.svg

<svg width="189" height="129" viewBox="0 0 189 129" fill="none" xmlns="http://www.w3.org/2000/svg">
<path d="M3.11858 0L29.1421 6.05507C19.7441 40.2454 41.0563 74.799 76.6618 83.0748C88.8961 85.8867 101.663 85.351 113.618 81.524C125.573 77.697 136.274 70.7204 144.592 61.3292C151.012 54.0406 155.692 45.3915 158.279 36.0338L184.286 42.0759C180.658 55.21 174.091 67.3497 165.081 77.5798C153.411 90.7554 138.398 100.542 121.625 105.91C104.851 111.277 86.9394 112.025 69.7761 108.076C19.8207 96.4739 -10.0767 47.9917 3.11858 0Z" fill="url(#paint0_linear_229_318)"/>
<path d="M33.3038 24.4663L29.1421 6.05511C26.4584 15.7104 26.2052 25.8786 28.4053 35.6551L32.567 54.0662C30.3668 44.2897 30.6198 34.1216 33.3038 24.4663Z" fill="url(#paint1_linear_229_318)"/>
<path d="M165.081 77.5798C153.411 90.7554 138.398 100.543 121.625 105.91C104.851 111.277 86.9393 112.025 69.776 108.076C34.5273 99.8894 9.26496 73.3413 2.08124 41.5598L6.24289 59.971C13.4266 91.7526 38.6888 118.3 73.9376 126.487C91.1009 130.436 109.013 129.688 125.786 124.321C142.559 118.954 157.572 109.167 169.243 95.9911C178.252 85.7609 184.819 73.6212 188.448 60.4872L184.286 42.0761C180.658 55.2101 174.091 67.3497 165.081 77.5798Z" fill="url(#paint2_linear_229_318)"/>
<defs>
<linearGradient id="paint0_linear_229_318" x1="62.4092" y1="-41.6598" x2="205.075" y2="350.365" gradientUnits="userSpaceOnUse">
<stop stop-color="#FFE067"/>
<stop offset="1" stop-color="#FEC34A"/>
</linearGradient>
<linearGradient id="paint1_linear_229_318" x1="132.574" y1="153.618" x2="20.2886" y2="16.84" gradientUnits="userSpaceOnUse">
<stop stop-color="#FE893E"/>
<stop offset="1" stop-color="#FFAD44"/>
</linearGradient>
<linearGradient id="paint2_linear_229_318" x1="38.561" y1="112.041" x2="153.03" y2="7.7242" gradientUnits="userSpaceOnUse">
<stop stop-color="#FE893E"/>
<stop offset="1" stop-color="#FFAD44"/>
</linearGradient>
</defs>
</svg>

<svg width="189" height="129" fill="none" xmlns="http://www.w3.org/2000/svg">
  <path d="m3.119 0 26.023 6.055c-9.398 34.19 11.914 68.744 47.52 77.02a69.88 69.88 0 0 0 36.956-1.551 69.805 69.805 0 0 0 30.974-20.195 64.119 64.119 0 0 0 13.687-25.295l26.007 6.042a89.957 89.957 0 0 1-19.205 35.504 97.919 97.919 0 0 1-43.456 28.33 98.022 98.022 0 0 1-51.849 2.166C19.821 96.474-10.077 47.992 3.12 0Z" fill="url(#a)"/>
  <path d="m33.304 24.466-4.162-18.41a60.735 60.735 0 0 0-.737 29.6l4.162 18.41a60.73 60.73 0 0 1 .737-29.6Z" fill="url(#b)"/>
  <path d="M165.081 77.58a97.91 97.91 0 0 1-43.456 28.33 98.022 98.022 0 0 1-51.849 2.166C34.527 99.889 9.265 73.341 2.081 41.56L6.243 59.97c7.184 31.782 32.446 58.329 67.695 66.516a98.02 98.02 0 0 0 51.848-2.166 97.916 97.916 0 0 0 43.457-28.33 89.984 89.984 0 0 0 19.205-35.504l-4.162-18.41a89.957 89.957 0 0 1-19.205 35.503Z" fill="url(#c)"/>
  <defs>
    <linearGradient id="a" x1="62.409" y1="-41.66" x2="205.075" y2="350.365" gradientUnits="userSpaceOnUse">
      <stop stop-color="#FFE067"/>
      <stop offset="1" stop-color="#FEC34A"/>
    </linearGradient>
    <linearGradient id="b" x1="132.574" y1="153.618" x2="20.289" y2="16.84" gradientUnits="userSpaceOnUse">
      <stop stop-color="#FE893E"/>
      <stop offset="1" stop-color="#FFAD44"/>
    </linearGradient>
    <linearGradient id="c" x1="38.561" y1="112.041" x2="153.03" y2="7.724" gradientUnits="userSpaceOnUse">
      <stop stop-color="#FE893E"/>
      <stop offset="1" stop-color="#FFAD44"/>
    </linearGradient>
  </defs>
</svg>
